X:93
T:Bonny Bett. JJo.093
S:J.Jones MS,1801,N.Shrops.
A:N Shropshire
Z:Neil Brookes 2006
M:4/4
L:1/8
Q:1/4=140
K:C
c>d|e3e fe dc|A2c2G2A2|c3d e3f|g2e2ed c>d|!
e3e fe dc|A2c2G2A2|c3d e3f|g2d2e2c2|!
c’3b c’bc’b|c’2g2ec|f3g agfe|d2d’2b2g2|!
{g}e2fg agfe|fefg agfe|fed^c defg|agab Hc’2 b>a|!
c2c’2c’2e’2|c3d efge|c2 c’b c’d’e’d’|c’2cd efge|c2c’2c’2|]

